X:1
T:Title
%%score ( 1 2 ) { 3 | 4 }
L:1/8
Q:1/4=108
M:4/4
K:Ab
V:1 treble nm="Grand Piano, Soprano"
V:2 treble 
V:3 bass nm="Choir Pad, Glastonbury, 76.76.76 D"
V:4 bass 
V:1
 [Ec]2 [Cc]2 [DB]2 [EA]2 | [EF]2 [DA]2 [CE]4 | [B,E]2 CD [CE]2 [Ec]2 | [=DB]3 [DA] [EB]4 | %4
w: By~John~Bacchus~Dykes~(1823\-1876) * * *||||
 [F_c]2 [Fc]2 [=E=c]2 [Ec]2 | [Ed]3 [Ed] [Ec]4 | [Ee]2 [Ec]2 [=DF]2 GA | B3 A [EG]4 | %8
w: ||||
 [C_G]2 [CG]2 F2 [EF]2 | [Dd]2 [FB]2 A2 G2 | [Ee]2 [=Ec]2 [FA]2 B,_C | [CE][EA] [DG]2 [CA]4- | %12
w: ||||
 [CA]4 z4 |] %13
w: |
V:2
 x8 | x8 | z2 E2 z4 | x8 | x8 | x8 | z4 z2 E2 | E2 D2 z4 | x8 | z4 E4 | z4 z2 F2 | x8 | x8 |] %13
V:3
 C2 A,2 G,2 A,2 | A,2 A,2 A,4 | G,2 A,B, A,2 A,2 | A,3 A, G,4 | G,2 G,2 G,2 G,2 | G,3 G, A,4 | %6
 C2 A,2 A,2 G,2 | F,2 B,2 B,4 | A,2 A,2 A,2 =A,2 | B,2 D2 C2 B,2 | A,2 A,2 A,2 B,A, | %11
 A,C B,2 A,4- | A,4 z4 |] %13
V:4
 A,2 A,,2 B,,2 C,2 | D,2 F,2 z4 | E,2 E,2 z2 C,2 | F,3 F, E,4 | =D,2 D,2 C,2 C,2 | B,,3 B,, A,,4 | %6
 A,,2 A,,2 A,,2 B,,2 | B,,2 B,,2 E,4 | A,,2 A,,2 D,2 C,2 | B,,2 B,,2 E,4 | C,2 C,2 D,2 D,=D, | %11
 E,2 E,2 A,,4- | A,,4 z4 |] %13

